public/avatar/hat/107.svg

<svg xmlns:xlink="http://www.w3.org/1999/xlink" height="92.9" width="100.7" xmlns="http://www.w3.org/2000/svg"><use height="40.45" transform="translate(20.65 39.35)" width="35.2" xlink:href="#a"/><defs><g id="a"><path d="M6.9 9.15q2.8 0 4.15 2.45l1.05 2.65q0 1.4-1.4 1.4-6.4-2.9-8.2-2.9-9.15 0-12.4 1.95l-1.6 1.35q-.7.6-1.5.6-1.25 0-1.25-1.35l.7-1.3-.35-1.35q0-1.25 1.95-2.3Q-9.5 9-5.15 9l3.7.2 5.5.15 2.85-.2" fill="#2c2833" fill-opacity=".251" fill-rule="evenodd" transform="translate(18 10.4)"/><path d="m29.7 35.3 3.45-3.25q1.65-2.9.7-4.65-.9-1.7-1.25-4.35l-.2-2.3q.4-3.4-2-6.05-1.7-3.4-2.8-4.6-1.45-1.5-4.65-3.8-2.25-3.5-3.8-4.8-.55-.45-1.7-.5l-1.05.05q-1.2.1-3.05 3.2-1.25 2.05-2.9 3.15L7.9 9.25 6.45 10.6q-.5.8-1.35 4.15l-.6.9q-1.75 1.7-1.9 3l-.35 4.9L2 24.7q-.55.95-.65 2.7-.95 1.75.7 4.65l4.05 3.5" fill="none" stroke="#000" stroke-linecap="round" stroke-linejoin="round" stroke-width="2"/><path d="m9.15 6.05.9.5Q11 7.2 11.1 7.9q.2 1.2-3.2 2.65Q4.05 12.1-.6 12.1q-4.35 0-8.35-1.15-2.95-.85-3.7-1.55-.35-.3.4-1.15l.85-.8 20.55-1.4" fill-rule="evenodd" transform="translate(18 10.4)"/><path d="M10.2 11.5q-.25-1.65-2.45-1.85h-8.4q-6.6-.15-8.2 0-2.2.2-2.45 1.85-.45 2.75 2.4 6.9 3.45 5 8.8 5 5.35 0 8.4-5 2.35-4 1.9-6.9M4.95-4.1Q8.15-1.8 9.6-.3q1.1 1.2 2.8 4.6 2.4 2.65 2 6.05l.2 1.65v.65q.35 2.65 1.25 4.35.95 1.75-.7 4.65l-1.35 2.8q-1.1 1.75-3.55 3.1Q6.5 29.65-.3 30q-5.25.3-9.1-2-4.1-1.95-6.55-6.35-1.65-2.9-.7-4.65.1-1.75.65-2.7l.25-1.15.35-4.9q.15-1.3 1.9-3l.6-.9Q-12.05 1-11.55.2l1.45-1.35L-7.55-3q1.65-1.1 2.9-3.15 1.85-3.1 3.05-3.2l1.05-.05q1.15.05 1.7.5 1.55 1.3 3.8 4.8" fill="#4c4d5f" fill-rule="evenodd" transform="translate(18 10.4)"/><path d="M10.2 7.2 8.5 9.05Q5.55 10.9-.9 10.9t-9.3-1.45l-1.55-1.5L10.2 7.2" fill="#aaacbd" fill-rule="evenodd" transform="translate(18 10.4)"/><path d="M7.55 5.55q2.65.9 2.65 1.65 0 .8-2.05 1.55Q5.2 9.8-.7 9.8q-11.1 0-11.1-2 0-.75 2.6-1.9 3.4-1.5 8.35-1.5 5.05 0 8.4 1.15" fill="#4c4d5f" fill-rule="evenodd" transform="translate(18 10.4)"/><path d="m5.5 5.95.75-.1 2.95 1.5Q8 8.45 5.2 8.9l-1.95.45q-1.2.25-1.8-.35L3.7 7.5l1.8-1.55" fill-rule="evenodd" transform="translate(18 10.4)"/><path d="M-6.3 9.4q-4.4 0-4.2-1.4.05-.5 3.6-1.45 6.25-1.65 5.1.7Q-2.85 9.5-6.3 9.4m2.85-11.85Q-.7-.05-9.9.35l-.25.1q.4-1 3.05-2.35.65-.3 1.8-.95 1-.35 1.85.4M-2.3-7.2Q-.5-9.75.15-7.85.6-6.6-1.4-5.3q-1.8 1.2-3.05 1.1l2.15-3m-10.4 29.65q-2.7-1.65-2.85-3.65-.25-2.3 2.75-.2 4.1 2.65 3.95 4.35-.2 1.95-3.85-.5" fill="#6d6f89" fill-rule="evenodd" transform="translate(18 10.4)"/><path d="m-10.6-.25 2.35.1 2.95 1q.5.2 1.5 1.6.95 1.4 1.5 1.6-.45.6-4 .95-1.75.15-3.4.95Q-11.85 7-11.8 8.5l-.1.75q-.45 1.85-1.7 1.15-1.25-.75-1.15-2.25.05-.85 1.1-2.2L-12.1 4q.9-3.55 1.5-4.25" fill="#6d6f89" fill-rule="evenodd" transform="translate(18 10.4)"/><path d="m1.35-6.85 1.25.65 1.45 2.15q.85 1.6 1.55 2.2.6.5 2.3.8Q9.35-.8 10 .15q.55.85 1.3 4.35l1.6 2q.6 1 .45 2.85-.15 1.95-1.15 2.4v-.25L11.25 9q-.8-1.5-1.95-2.45l-2.35-1.5-1.35-.8-.1-3.15Q5.3.35 3.9-.05 2.45-.4 2.1-1.35q-.35-.85-.25-2.75.1-1.75-.5-2.75m10.75 24.6.35.15q.05-.55.55-.95l1.1-.05q.45.35-.1 2.25-1.1 2.8-5.05 4.85-4 2-5.85 2.15-1.15.05-1.1-.45 0-.45.95-.9 2.65-.85 3.9-1.55 2.3-1.4 3-2.35 1.2-2.75 2.25-3.15" fill-rule="evenodd" transform="translate(18 10.4)"/></g></defs></svg>

<?xml version="1.0" encoding="UTF-8" standalone="no"?>
<svg xmlns:xlink="http://www.w3.org/1999/xlink" height="92.9px" width="100.7px" xmlns="http://www.w3.org/2000/svg">
  <g transform="matrix(1.0, 0.0, 0.0, 1.0, 38.65, 49.75)">
    <use height="40.45" transform="matrix(1.0, 0.0, 0.0, 1.0, -18.0, -10.4)" width="35.2" xlink:href="#shape0"/>
  </g>
  <defs>
    <g id="shape0" transform="matrix(1.0, 0.0, 0.0, 1.0, 18.0, 10.4)">
      <path d="M6.9 9.15 Q9.7 9.15 11.05 11.6 L12.1 14.25 Q12.1 15.65 10.7 15.65 4.3 12.75 2.5 12.75 -6.65 12.75 -9.9 14.7 L-11.5 16.05 Q-12.2 16.65 -13.0 16.65 -14.25 16.65 -14.25 15.3 L-13.55 14.0 -13.9 12.65 Q-13.9 11.4 -11.95 10.35 -9.5 9.0 -5.15 9.0 L-1.45 9.2 4.05 9.35 6.9 9.15" fill="#2c2833" fill-opacity="0.2509804" fill-rule="evenodd" stroke="none"/>
      <path d="M11.7 24.9 L15.15 21.65 Q16.8 18.75 15.85 17.0 14.95 15.3 14.6 12.65 L14.4 10.35 Q14.8 6.95 12.4 4.3 10.7 0.9 9.6 -0.3 8.15 -1.8 4.95 -4.1 2.7 -7.6 1.15 -8.9 0.6 -9.35 -0.55 -9.4 L-1.6 -9.35 Q-2.8 -9.25 -4.65 -6.15 -5.9 -4.1 -7.55 -3.0 L-10.1 -1.15 -11.55 0.2 Q-12.05 1.0 -12.9 4.35 L-13.5 5.25 Q-15.25 6.95 -15.4 8.25 L-15.75 13.15 -16.0 14.3 Q-16.55 15.25 -16.65 17.0 -17.6 18.75 -15.95 21.65 L-11.9 25.15" fill="none" stroke="#000000" stroke-linecap="round" stroke-linejoin="round" stroke-width="2.0"/>
      <path d="M9.15 6.05 L10.05 6.55 Q11.0 7.2 11.1 7.9 11.3 9.1 7.9 10.55 4.05 12.1 -0.6 12.1 -4.95 12.1 -8.95 10.95 -11.9 10.1 -12.65 9.4 -13.0 9.1 -12.25 8.25 L-11.4 7.45 9.15 6.05" fill="#000000" fill-rule="evenodd" stroke="none"/>
      <path d="M10.2 11.5 Q9.95 9.85 7.75 9.65 L-0.4 9.65 -0.65 9.65 Q-7.25 9.5 -8.85 9.65 -11.05 9.85 -11.3 11.5 -11.75 14.25 -8.9 18.4 -5.45 23.4 -0.1 23.4 5.25 23.4 8.3 18.4 10.65 14.4 10.2 11.5 M4.95 -4.1 Q8.15 -1.8 9.6 -0.3 10.7 0.9 12.4 4.3 14.8 6.95 14.4 10.35 L14.6 12.0 14.6 12.65 Q14.95 15.3 15.85 17.0 16.8 18.75 15.15 21.65 L13.8 24.45 Q12.7 26.2 10.25 27.55 6.5 29.65 -0.3 30.0 -5.55 30.3 -9.4 28.0 -13.5 26.05 -15.95 21.65 -17.6 18.75 -16.65 17.0 -16.55 15.25 -16.0 14.3 L-15.75 13.15 -15.4 8.25 Q-15.25 6.95 -13.5 5.25 L-12.9 4.35 Q-12.05 1.0 -11.55 0.2 L-10.1 -1.15 -7.55 -3.0 Q-5.9 -4.1 -4.65 -6.15 -2.8 -9.25 -1.6 -9.35 L-0.55 -9.4 Q0.6 -9.35 1.15 -8.9 2.7 -7.6 4.95 -4.1" fill="#4c4d5f" fill-rule="evenodd" stroke="none"/>
      <path d="M10.2 7.2 L8.5 9.05 Q5.55 10.9 -0.9 10.9 -7.35 10.9 -10.2 9.45 L-11.75 7.95 10.2 7.2" fill="#aaacbd" fill-rule="evenodd" stroke="none"/>
      <path d="M7.55 5.55 Q10.2 6.45 10.2 7.2 10.2 8.0 8.15 8.75 5.2 9.8 -0.7 9.8 -11.8 9.8 -11.8 7.8 -11.8 7.05 -9.2 5.9 -5.8 4.4 -0.85 4.4 4.2 4.4 7.55 5.55" fill="#4c4d5f" fill-rule="evenodd" stroke="none"/>
      <path d="M5.5 5.95 L6.25 5.85 9.2 7.35 Q8.0 8.45 5.2 8.9 L3.25 9.35 Q2.05 9.6 1.45 9.0 L3.7 7.5 5.5 5.95" fill="#000000" fill-rule="evenodd" stroke="none"/>
      <path d="M-6.3 9.4 Q-10.7 9.4 -10.5 8.0 -10.45 7.5 -6.9 6.55 -0.65 4.9 -1.8 7.25 -2.85 9.5 -6.3 9.4" fill="#6d6f89" fill-rule="evenodd" stroke="none"/>
      <path d="M-3.45 -2.45 Q-0.7 -0.05 -9.9 0.35 L-10.15 0.45 Q-9.75 -0.55 -7.1 -1.9 -6.45 -2.2 -5.3 -2.85 -4.3 -3.2 -3.45 -2.45" fill="#6d6f89" fill-rule="evenodd" stroke="none"/>
      <path d="M-2.3 -7.2 Q-0.5 -9.75 0.15 -7.85 0.6 -6.6 -1.4 -5.3 -3.2 -4.1 -4.45 -4.2 L-2.3 -7.2" fill="#6d6f89" fill-rule="evenodd" stroke="none"/>
      <path d="M-12.7 22.45 Q-15.4 20.8 -15.55 18.8 -15.8 16.5 -12.8 18.6 -8.7 21.25 -8.85 22.95 -9.05 24.9 -12.7 22.45" fill="#6d6f89" fill-rule="evenodd" stroke="none"/>
      <path d="M-10.6 -0.25 L-8.25 -0.15 -5.3 0.85 Q-4.8 1.05 -3.8 2.45 -2.85 3.85 -2.3 4.05 -2.75 4.65 -6.3 5.0 -8.05 5.15 -9.7 5.95 -11.85 7.0 -11.8 8.5 L-11.9 9.25 Q-12.35 11.1 -13.6 10.4 -14.85 9.65 -14.75 8.15 -14.7 7.3 -13.65 5.95 L-12.1 4.0 Q-11.2 0.45 -10.6 -0.25" fill="#6d6f89" fill-rule="evenodd" stroke="none"/>
      <path d="M1.35 -6.85 L2.6 -6.2 4.05 -4.05 Q4.9 -2.45 5.6 -1.85 6.2 -1.35 7.9 -1.05 9.35 -0.8 10.0 0.15 10.55 1.0 11.3 4.5 L12.9 6.5 Q13.5 7.5 13.35 9.35 13.2 11.3 12.2 11.75 L12.2 11.5 11.25 9.0 Q10.45 7.5 9.3 6.55 L6.95 5.05 5.6 4.25 5.5 1.1 Q5.3 0.35 3.9 -0.05 2.45 -0.4 2.1 -1.35 1.75 -2.2 1.85 -4.1 1.95 -5.85 1.35 -6.85" fill="#000000" fill-rule="evenodd" stroke="none"/>
      <path d="M12.1 17.75 L12.45 17.9 Q12.5 17.35 13.0 16.95 L14.1 16.9 Q14.55 17.25 14.0 19.15 12.9 21.95 8.95 24.0 4.95 26.0 3.1 26.15 1.95 26.2 2.0 25.7 2.0 25.25 2.95 24.8 5.6 23.95 6.85 23.25 9.15 21.85 9.85 20.9 11.05 18.15 12.1 17.75" fill="#000000" fill-rule="evenodd" stroke="none"/>
    </g>
  </defs>
</svg>
